X:1
T:Title
%%score { ( 1 3 ) | ( 2 4 ) }
L:1/8
Q:1/4=100
M:4/4
K:Bb
V:1 treble nm="Grand Piano"
V:3 treble 
V:2 bass 
V:4 bass 
V:1
 [DF]2 [Fd]>[Fd] [Fd]2 [Fc]>[FB] | [GB]2 [EG]2 [DF]4 | F2 G>A B2 c>[Fd] | z4 c4 | %4
w: James~M.~Black * * * * *||||
 [DF]2 [Fd]>[Fd] [Fd]2 [Fc]>[FB] | c2 B2 G4 | B>B B2 F2 [FB][Gc] | [Fd]2 [Ec]2 [DB]4 | %8
w: ||||
 [Fd]>[=E_d] [F=d]2 [DB]4 | d>_d =d2 [=EG]4 | [DB]2 [=EA]>[EB] c2 F>F | [DB]2 c2 d4 | %12
w: ||||
 [Fd]2 [Fd]>[=E_d] [F=d]2 [FB]>[FB] | z2 d2 z4 | B>B B2 F2 [FB][Gc] | [Fd]2 [Ec]2 [DB]4 |] %16
w: ||||
V:2
 [B,,B,]2 [B,,B,]>[B,,B,] [B,,B,]2 [C,A,]>[D,B,] | [E,B,]2 [E,B,]2 [B,,B,]4 | %2
 [F,A,C]2 [F,B,E]>[F,CF] [F,DF]2 [F,A,F]>[B,,B,] | z4 F2 z2 | %4
 [B,,B,]2 [B,,B,]>[B,,B,] [B,,B,]2 [C,A,]>[D,B,] | [E,G,E]2 [E,G,E]2 [E,B,E]4 | %6
 [G,B,E]>[G,B,E] [G,B,E]2 [B,D]2 [D,B,][E,B,] | [F,B,]2 [F,A,]2 [B,,B,]4 | %8
 [B,,B,]>[B,,B,] [B,,B,]2 [B,,B,]4 | [B,F]>[B,=E] [B,F]2[K:bass] [E,B,]4 | %10
 [G,B,]2 [C,C]>[C,B,] [F,A,E]2 [F,A,E]>[F,A,E] | [B,,B,]2[K:treble] [F,A,F]2 [B,F]4 | %12
 [B,,B,]2 [B,,B,]>[B,,B,] [B,,B,]2 [D,B,]>[D,B,] | [F,A,F]2 .[B,F]2[K:bass] [E,B,]4 | %14
 [G,B,E]>[G,B,E] [G,B,E]2 [B,D]2 [D,B,][E,B,] | [F,B,]2 [F,A,]2 [B,,B,]4 |] %16
V:3
 x8 | x8 | x8 | [=Ed]2 [Ec]2 z2 _E2 | x8 | x8 | x8 | x8 | x8 | x8 | x8 | x8 | x8 | c2 z _A [Ge]4 | %14
 x8 | x8 |] %16
V:4
 x8 | x8 | x8 | [C,B,]2 [C,B,]2 [F,A,]4 | x8 | x8 | x8 | x8 | x8 | x4[K:bass] x4 | x8 | %11
 x2[K:treble] x6 | x8 | x4[K:bass] x4 | x8 | x8 |] %16

